packages/tokens/icons/path/size32Px.svg

<svg viewBox="0 0 32 32" fill="none" xmlns="http://www.w3.org/2000/svg" width="1em" height="1em"><path d="M26 7.5L30 11.5L26 15.5" stroke="currentColor" stroke-linecap="round" stroke-linejoin="round"/><path d="M8.5 12.5H9.83333C10.7538 12.5 11.5 11.7538 11.5 10.8333L11.5 8.5C11.5 5.18629 14.1863 2.5 17.5 2.5V2.5C20.8137 2.5 23.5 5.18629 23.5 8.5L23.5 21.3376C23.5 23.5372 20.6659 24.426 19.4098 22.6204L17.1951 19.4367C16.1332 17.9102 14.3913 17 12.5316 17V17C9.75275 17 7.5 19.2527 7.5 22.0316V24.418C7.5 27.2247 9.77527 29.5 12.582 29.5V29.5C15.2981 29.5 17.5 27.2981 17.5 24.582L17.5 14.5C17.5 12.8431 18.8431 11.5 20.5 11.5L29.5 11.5" stroke="currentColor" stroke-linecap="round"/><path d="M8.5 12.5C8.5 14.1569 7.15685 15.5 5.5 15.5C3.84315 15.5 2.5 14.1569 2.5 12.5C2.5 10.8431 3.84315 9.5 5.5 9.5C7.15685 9.5 8.5 10.8431 8.5 12.5Z" stroke="currentColor"/></svg>

<svg xmlns="http://www.w3.org/2000/svg" fill="none" viewBox="0 0 32 32" width="1em" height="1em"><path stroke="currentColor" stroke-linecap="round" stroke-linejoin="round" d="m26 7.5 4 4-4 4"/><path stroke="currentColor" stroke-linecap="round" d="M8.5 12.5h1.333c.92 0 1.667-.746 1.667-1.667V8.5a6 6 0 0 1 6-6v0a6 6 0 0 1 6 6v12.838c0 2.2-2.834 3.088-4.09 1.282l-2.215-3.183A5.68 5.68 0 0 0 12.532 17v0A5.032 5.032 0 0 0 7.5 22.032v2.386a5.082 5.082 0 0 0 5.082 5.082v0a4.918 4.918 0 0 0 4.918-4.918V14.5a3 3 0 0 1 3-3h9"/><path stroke="currentColor" d="M8.5 12.5a3 3 0 1 1-6 0 3 3 0 0 1 6 0Z"/></svg>
